X:1
T:The Plooman Lad (Hishie Ba)
M:4/4
L:1/4
K:F
 z2 z z/2 D/2| F3/2 F/2 F3/2 G/2| A A A3/2 G/2| F A c d| A/2 G3/2 GA/2-c/2|\
 d d dc/2-A/2| c d A F| G G A3/2 G/2| F D3/2 D3/2|

